img/arrow-35.svg

<svg fill="none" height="11" viewBox="0 0 12 11" width="12" xmlns="http://www.w3.org/2000/svg"><path d="m11.6634 2.70561c.0811-.46048-.2263-.89959-.6868-.98078l-7.50388-1.323139c-.46048-.081194-.89959.226274-.98078.686749-.0812.46048.22627.89959.68675.98078l6.67012 1.17612-1.17612 6.67013c-.0812.46043.22627.89963.68675.98073.46047.0812.89956-.2262.98076-.6867zm-11.149241 6.04239c-.383019.26819-.4761036.7961-.207911 1.17912.268192.38298.796102.47608 1.179122.20788zm9.829841-6.88292-9.829841 6.88292.971211 1.387 9.82983-6.88289z" fill="#fff"/></svg>

<svg width="12" height="11" viewBox="0 0 12 11" fill="none" xmlns="http://www.w3.org/2000/svg">
<path d="M11.6634 2.70561C11.7445 2.24513 11.4371 1.80602 10.9766 1.72483L3.47272 0.401691C3.01224 0.320497 2.57313 0.627965 2.49194 1.08844C2.41074 1.54892 2.71821 1.98803 3.17869 2.06922L9.84881 3.24534L8.67269 9.91547C8.59149 10.3759 8.89896 10.8151 9.35944 10.8962C9.81991 10.9774 10.259 10.67 10.3402 10.2095L11.6634 2.70561ZM0.514159 8.748C0.13114 9.01619 0.0380554 9.5441 0.306248 9.92712C0.57444 10.3101 1.10235 10.4032 1.48537 10.135L0.514159 8.748ZM10.344 1.86508L0.514159 8.748L1.48537 10.135L11.3152 3.25211L10.344 1.86508Z" fill="white"/>
</svg>
